X: 7896
T: Con Cassidy's Highland
R: hornpipe
M: 4/4
K: Adorian
ed|:^cAAG EAAB|^cBA^g agae|^cAAG EAA=c|(3BBB GB dged:|
c3e gedB|cBAb aged|c2^cd efge|dBGB dged|
c3e gedB|cBAg abga|(3bag af gage|dBGB (3gag ed|

